!!!COM: Bach, Johann Sebastian
!!!CDT: 1685/3//-1750/7/28/
!!!OTL@@DE: Komm, heiliger Geist, Herre Gott
!!!AGN: 4-Part Chorale
!!!SCT: BH 069
!!!SCT: BWV 226
!!!ONB: Transposed down a minor third from original BWV 226 chorale.
**harm	**root	**kern	**kern	**kern	**kern
!	!	!bass	!tenor	!alto	!soprno
*	*Iorgan	*Iorgan	*Iorgan	*Iorgan	*Iorgan
*	*	*clefF4	*clefF4	*clefG2	*clefG2
*M4/4	*M4/4	*M4/4	*M4/4	*M4/4	*M4/4
*met(c)	*met(c)	*met(c)	*met(c)	*met(c)	*met(c)
*MM60	*MM60	*MM60	*MM60	*MM60	*MM60
*k[f#c#g#d#a#e#b#]	*k[f#c#g#d#a#e#b#]	*k[f#c#g#d#a#e#b#]	*k[f#c#g#d#a#e#b#]	*k[f#c#g#d#a#e#b#]	*k[f#c#g#d#a#e#b#]
*C#:	*C#:	*C#:	*C#:	*C#:	*C#:
I	4GG	4c#	4e#	4cc#	4gg#
=1	=1	=1	=1	=1	=1
IV	4CC	4F#	8f#	4cc#	4aa#
.	.	.	8e#	.	.
V	4DD	4G#	4d#	4b#	8gg#
.	.	.	.	.	8ff#
vi	4EE	4A#	4c#	4cc#	8ee#
.	.	.	.	.	8ff#
Ib	4GG	8E#	4c#	8g#	4gg#
.	.	8F#	.	8a#	.
=2	=2	=2	=2	=2	=2
V;	2DD;	2G#;	2g#;	2b#;	2dd#;
I	4GG	8c#	4g#	4cc#	4ee#
.	.	8B#	.	.	.
viib/V	4CC#	4A#	4c#	4cc#	4ff##
=3	=3	=3	=3	=3	=3
V;	2DD;	2G#;	2d#;	2b#;	2gg#;
r	4r	4r	4r	4r	4r
Ib	4GG	4E#	4c#	4cc#	4gg#
=4	=4	=4	=4	=4	=4
IV	4CC	4F#	8f#	4cc#	4aa#
.	.	.	8e#	.	.
V	4DD	4G#	8d#	8b#	4gg#
.	.	.	8c#	8a#	.
V7d	8DD	8F#	8B#	4g#	8dd#
Ib	8GG	8E#	8c#	.	8ee#
ii	4AA	4D#	4F#	8a#	4ff#
.	.	.	.	8b#	.
=5	=5	=5	=5	=5	=5
Ib	4GG	8E#	4G#	4cc#	4ee#
.	.	8F#	.	.	.
V	4DD	4G#	8g#	4b#	4dd#
.	.	.	8f#	.	.
I;	4GG;	4C#;	4e#;	4g#;	4cc#;
I	4GG	4c#	4e#	4g#	4cc#
=6	=6	=6	=6	=6	=6
Vb	4DD	4B#	4d#	4g#	8dd#
.	.	.	.	.	8ee#
IVb	4CC	8A#	8c#	4a#	4ff#
.	.	8B#	8d#	.	.
I	4GG	4c#	4e#	8g#	8ee#
.	.	.	.	8a#	8ff#
Vb	4DD	8B#	8d#	[4b#	[4gg#
.	.	8A#	8c#	.	.
!!linebreak: 4
=7	=7	=7	=7	=7	=7
Vb	4DD	8B#	4d#	8b#]	4gg#]
.	.	8A#	.	8cc#	.
V	4DD	8G#	4g#	8b#	4dd#
.	.	8F##	.	8a#	.
Ib	4GG	8E#	4g#	8g#	8cc#
.	.	8C#	.	8e#	8b#
V/V	4AA	4D#	8d#	4f##	4a#
.	.	.	8c#	.	.
=8	=8	=8	=8	=8	=8
V;	2DD;	2G#;	2B#;	2d#;	2g#;
r	4r	4r	4r	4r	4r
V	4DD	8G#	4B#	4d#	4g#
.	.	8F#	.	.	.
=9	=9	=9	=9	=9	=9
Ib	8GG	8E#	4c#	8g#	4cc#
IV	8CC	8F#	.	8a#	.
viib	4FF#	8E#	4f#	4b#	4dd#
.	.	8D#	.	.	.
I	4GG	4C#	8g#	4.cc#	8ee#
.	.	.	8f#	.	8ff#
I	8GG	8c#	8e#	.	[4gg#
vb	8DD	8B	8d#	8dd#	.
=10	=10	=10	=10	=10	=10
V7/ii	4EE	4A#	8c##	4.ee#	4gg#]
.	.	.	8B#y	.	.
ii	4AA	4D#	4A#	.	4ff#
.	.	.	.	8dd#	.
V/vi	4BB	4E#	4G##	8cc#	4ee#
.	.	.	.	8b#	.
iib	4AA	4F#	4A#	4a#	4dd#
=11	=11	=11	=11	=11	=11
V/vi;	2BB;	2E#;	2B#;	2g##;	2ee#;
r	4r	4r	4r	4r	4r
vi	4EE	4A#	8c#	4cc#	8ee#
.	.	.	8d#	.	8ff#
=12	=12	=12	=12	=12	=12
viib/V/V	4GG#	4e#	4e#	8b#	4gg#
.	.	.	.	8cc##	.
V/V	4AA	8d#	4f##	4dd#	4aa#
.	.	8c#	.	.	.
Vb	4DD	8B#	4.g#	8dd#	4gg#
.	.	8A#	.	8cc#	.
V	4DD	4G#	.	8b#	4dd#
.	.	.	8f#	8a#	.
!!linebreak: 4
=13	=13	=13	=13	=13	=13
I	4GG	8c#	8e#	4g#	4ee#
.	.	8B#	8d#	.	.
viib/V	4CC#	4A#	4c#	4a#	4ff##
V;	4DD;	4G#;	4d#;	4b#;	4gg#;
I	4GG	4c#	4e#	8cc#	4gg#
.	.	.	.	8b#	.
=14	=14	=14	=14	=14	=14
IV	4CC	4F#	4f#	8a#	4aa#
.	.	.	.	8b#	.
Ib	4GG	8E#	4g#	4cc#	4gg#
.	.	8F#	.	.	.
V	4DD	4G#	4g#	4b#	8dd#
.	.	.	.	.	8ee#
IVb	4CC	8A#	8c#	4a#	4ff#
.	.	8B#	8d#	.	.
=15	=15	=15	=15	=15	=15
I	8GG	8c#	8e#	8g#	4ee#
IV7	8CC	8F#	8c#	8a#	.
V	4DD	4G#	8g#	4b#	4dd#
.	.	.	8f#	.	.
I;	4GG;	4C#;	4e#;	4g#;	4cc#;
IV	4CC	8F#	4f#	4a#	4cc#
.	.	8E#	.	.	.
=16	=16	=16	=16	=16	=16
ii	4AA	4D#	8f#	4a#	8dd#
.	.	.	8e#	.	8ee#
ii	4AA	4d#	4d#	8a#	4ff#
.	.	.	.	8b#	.
vi	4EE	4A#	8e#	[2cc#	8ee#
.	.	.	8d#	.	8ff#
Ib	4GG	8E#	8c#	.	[4gg#
.	.	8F#	8d#	.	.
=17	=17	=17	=17	=17	=17
I	4GG	8G#	8e#	4cc#]	4gg#]
.	.	8A#	8f##	.	.
Vb	4DD	8B#	2g#	4b#	4dd#
.	.	8G#	.	.	.
Ib	4GG	8e#	.	8cc#	8cc#
.	.	8c#	.	[8g#	8b#
V/V	4AA	4d#	8d#	8g#]	4a#
.	.	.	8c#	8f##	.
=18	=18	=18	=18	=18	=18
V;	2DD;	2G#;	2B#;	2d#;	2g#;
r	4r	4r	4r	4r	4r
iii	4BB	4E#	4B#	8g#	4g#
.	.	.	.	8f#	.
!!linebreak: 4
=19	=19	=19	=19	=19	=19
vi	8EE	4A#	8c#	8e#	4cc#
IVb	8CC	.	8f#	8a#	.
Vb	4DD	4B#	8e#	8g#	4dd#
.	.	.	8d#	8f#	.
I	2GG	8c#	4.c#	4.e#	8ee#
.	.	8d#	.	.	8ff#
.	.	8e#	.	.	[4gg#
.	.	8d#	8d#	16f#	.
.	.	.	.	16g#	.
=20	=20	=20	=20	=20	=20
V7b/ii	4EE	8c##	4.e#	4a#	4gg#]
.	.	8A#	.	.	.
ii	4AA	4d#	.	4a#	4ff#
.	.	.	8d#	.	.
vi	4EE	8A#	8c#	4a#	4ee#
.	.	8G#	8B#	.	.
iib	4AA	8F#	4A#	8a#	4dd#
.	.	8E#	.	8g#	.
=21	=21	=21	=21	=21	=21
ii7b	4AA	8F#	2d#	2f#	4a#
.	.	8D#	.	.	.
V7	4DD	4G#	.	.	4b#
I;	4GG;	4C#;	4c#;	4e#;	4cc#;
V	4DD	4G#	4B#	4g#	4dd#
=22	=22	=22	=22	=22	=22
I	4GG	8C#	2.c#	[2g#	4ee#
.	.	8D#	.	.	.
Ib	4GG	4E#	.	.	4cc#
IV	2CC	2F#	.	8g#]	2a#
.	.	.	.	8e#	.
.	.	.	8c#	4f#	.
.	.	.	8B#	.	.
=23	=23	=23	=23	=23	=23
I;	4GG;	4c#;	4c#;	4e#;	4g#;
Vb	4DD	4B#	2d#	2g#	8dd#
.	.	.	.	.	16ee#
.	.	.	.	.	16ff#
I	4GG	8c#	.	.	2ee#
.	.	8B#	.	.	.
vi	4EE	8A#	[4c#	[4a#	.
.	.	8G#	.	.	.
=24	=24	=24	=24	=24	=24
ii7b	4AA	8F#	4c#]	4a#]	2dd#
.	.	8D#	.	.	.
V	4DD	4G#	16B#	8g#	.
.	.	.	16A#	.	.
.	.	.	8B#	8f#	.
I;	4GG;	4C#;	4G#;	4e#;	4cc#;
====	====	====	====	====	====
*-	*-	*-	*-	*-	*-
!!chor2scor: -l 4 -s 0.6 -o %b.pmx
!!!ONB1: changed line measure 6, beat 2: vi chord to a IVb chord, since 
!!!ONB2: there is no B and the C is not dissonant and does not resolve.
!!!ONB3: Now m.6, b.2 matches the analysis of m.14, b.4.
!!!YEC: Copyright 1994, David Huron
!!!YEC: Changes/Additions 2001 by Craig Stuart Sapp
!!!YEN: United States of America
!!!SMA: 371 Bach Chorales, edited by Ludwig Erk, C.F. Peters
!!!PDT: 1850, 1865
